X: 13
T:The Gypsy Girl
M:2/2
L:1/8
C:Ed Reavy
S:The Collected Compositions of Ed Reavy
R:Reel
N:Like Sarah Casey, Synge's "beauty of Ballinacree,"
N:the gypsy girl represents those strange
N:beauties of the road who have
N:such devilish wild appeal, unlike any
N:others we know. And you'll never
N:see the likes of them in any other setting
N:however far you venture.
Z:Joe Reavy
K:A
ED | CEAc fedc | (3gfe fg aece | (3dcB BA GBEG | Bdgf edcB |
cAED CEAc | dcBc defg | aece dbfg | afec A2 :|| cd | eaag aece
| dBgB aBgB | Aaag aece | dcBd cAcd | eaag aece | (3dcB Bc defg |
aece dbfg | afec A2 :|

composer: Ed Reavy
